img/phone.svg

<svg width="76" height="77" viewBox="0 0 76 77" fill="none" xmlns="http://www.w3.org/2000/svg">
<path fill-rule="evenodd" clip-rule="evenodd" d="M37.9998 0.874512C17.013 0.874512 -0.000183105 17.8877 -0.000183105 38.8745C-0.000183105 59.8613 17.013 76.8745 37.9998 76.8745C58.9866 76.8745 75.9998 59.8613 75.9998 38.8745C75.9998 17.8877 58.9866 0.874512 37.9998 0.874512ZM26.5804 19.8745C26.6929 19.9637 26.7821 19.9637 26.8713 19.9521C27.3327 19.9133 27.7282 20.0257 27.9841 20.4484C28.0293 20.5216 28.0745 20.5949 28.1197 20.6682C28.6488 21.5257 29.1788 22.3847 29.6825 23.2635C30.0472 23.8989 30.395 24.5446 30.7433 25.1909C30.9986 25.6648 31.2542 26.1391 31.5166 26.6099C31.6182 26.8008 31.7452 26.9805 31.8722 27.1603C31.9439 27.2618 32.0156 27.3633 32.0828 27.4669C32.2446 27.7243 32.3994 27.9887 32.5505 28.2468L32.5752 28.2889C32.9009 28.9055 32.8854 29.5259 32.4007 30.0184C31.8905 30.54 31.3421 31.0342 30.7948 31.5274C30.6017 31.7014 30.4088 31.8753 30.2176 32.0502C29.98 32.2683 29.7389 32.4828 29.498 32.6973C29.1176 33.0358 28.7375 33.374 28.3719 33.7254C27.9066 34.1752 27.7864 34.7374 28.1005 35.3307C28.1295 35.3851 28.1586 35.4396 28.1877 35.494C28.643 36.3468 29.0978 37.1987 29.5972 38.0334C31.567 41.3177 34.0836 44.1096 37.2633 46.2617C38.4886 47.0954 39.7643 47.8593 41.0517 48.5883C42.2654 49.2746 42.7385 49.1583 43.6807 48.1074C44.1784 47.5547 44.666 46.997 45.1543 46.4386C45.5259 46.0136 45.8978 45.5883 46.2748 45.1643C46.4842 44.9278 46.7363 44.7184 46.9806 44.5168C47.4769 44.098 48.0198 44.0515 48.5898 44.3384C48.6255 44.3558 48.6618 44.3729 48.6983 44.39C48.8239 44.4489 48.9508 44.5084 49.059 44.5866C50.0701 45.3099 51.161 45.8911 52.2505 46.4716C52.7904 46.7593 53.3301 47.0468 53.8595 47.3513C54.4053 47.665 54.9416 47.9928 55.4766 48.3197C55.7815 48.5061 56.086 48.6922 56.3915 48.8752C56.8452 49.1428 57.0275 49.5344 56.9965 50.0734C56.9111 51.5895 56.6591 53.0785 55.7789 54.3582C55.4105 54.8894 54.887 55.3547 54.3597 55.7308C52.8978 56.7545 51.2653 57.3866 49.5282 57.7743C47.95 58.1272 46.3757 57.9992 44.8634 57.5262C41.9436 56.6266 39.0664 55.5951 36.4179 54.0324C34.0138 52.6094 31.8268 50.8916 29.8027 48.9721C27.2396 46.5331 24.9518 43.8731 23.1022 40.8447C21.8963 38.8787 21.0354 36.7615 20.256 34.6017C19.783 33.2988 19.3177 32.0076 19.1083 30.6271C18.8678 29.0645 19.0346 27.5599 19.5348 26.0787C19.9846 24.7409 20.5469 23.4613 21.3961 22.3174C22.063 21.4294 22.8967 20.778 23.9747 20.4872C24.5838 20.326 25.1967 20.188 25.8094 20.0499C26.0666 19.992 26.3237 19.9341 26.5804 19.8745Z" fill="#FD848D"/>
</svg>

<svg width="76" height="77" fill="none" xmlns="http://www.w3.org/2000/svg"><path fill-rule="evenodd" clip-rule="evenodd" d="M38 .875c-20.987 0-38 17.013-38 38 0 20.986 17.013 38 38 38s38-17.014 38-38c0-20.987-17.013-38-38-38zm-11.42 19a.343.343 0 00.291.077c.462-.039.857.074 1.113.496l.136.22c.529.858 1.059 1.717 1.563 2.596.364.635.712 1.28 1.06 1.927.256.474.511.948.774 1.419.101.19.228.37.355.55.072.102.144.203.21.307.163.257.317.522.468.78l.025.042c.326.616.31 1.237-.174 1.73a35.12 35.12 0 01-1.606 1.508c-.193.174-.386.348-.577.523-.238.218-.48.433-.72.647-.38.339-.76.677-1.126 1.028-.465.45-.586 1.012-.271 1.606l.087.163c.455.853.91 1.705 1.41 2.54 1.969 3.284 4.486 6.076 7.665 8.228a54.151 54.151 0 003.789 2.326c1.213.687 1.687.57 2.629-.48.497-.553.985-1.111 1.473-1.67.372-.424.744-.85 1.12-1.274a6.21 6.21 0 01.707-.647c.496-.419 1.039-.466 1.609-.179.035.018.072.035.108.052.126.059.253.118.361.197 1.011.723 2.102 1.304 3.192 1.885.54.287 1.08.575 1.608.88.546.313 1.083.64 1.618.968.305.186.609.372.915.555.453.268.636.66.604 1.198-.085 1.517-.337 3.005-1.217 4.285-.369.531-.892.997-1.42 1.373-1.461 1.023-3.094 1.656-4.83 2.043-1.579.353-3.153.225-4.666-.248-2.92-.9-5.797-1.93-8.445-3.494-2.404-1.423-4.591-3.14-6.615-5.06-2.563-2.439-4.851-5.099-6.7-8.127-1.207-1.966-2.068-4.084-2.847-6.243-.473-1.303-.938-2.594-1.148-3.975-.24-1.563-.073-3.067.427-4.548.45-1.338 1.012-2.618 1.861-3.762.667-.888 1.5-1.539 2.579-1.83.609-.161 1.222-.299 1.834-.437l.771-.175z" fill="#FD848D"/></svg>
